X: 13688
T: For
R: reel
M: 4/4
K: Edorian
eEEF GFGA|BEED EFED|eEEF GFGA|1 BGAF EFGB:|2 Be ed e2 ef||
gbba (3gag ed|edBA B2 df|eB gB aB fB|1 edfd e2 ef:|2 egfd e4||

